assets/images/Research/Location.svg

<svg width="48" height="48" viewBox="0 0 48 48" fill="none" xmlns="http://www.w3.org/2000/svg">
<circle cx="24" cy="24" r="24" fill="#F7C24D"/>
<path fill-rule="evenodd" clip-rule="evenodd" d="M16.3717 28.6972L24.175 37.9L31.9811 28.6935C32.0227 28.6444 32.3002 28.28 32.3002 28.28L32.3011 28.2772C33.6335 26.5222 34.3532 24.3785 34.35 22.175C34.35 19.4764 33.278 16.8884 31.3698 14.9802C29.4616 13.072 26.8736 12 24.175 12C21.4764 12 18.8884 13.072 16.9802 14.9802C15.072 16.8884 14 19.4764 14 22.175C13.9968 24.3795 14.7169 26.5241 16.0498 28.28C16.156 28.4199 16.2633 28.559 16.3717 28.6972ZM17.6265 27.2962C17.5726 27.2254 17.527 27.1654 17.5261 27.1654H17.527C16.4372 25.7301 15.8481 23.9771 15.85 22.175C15.85 19.9671 16.7271 17.8496 18.2883 16.2883C19.8496 14.7271 21.9671 13.85 24.175 13.85C26.3829 13.85 28.5004 14.7271 30.0617 16.2883C31.6229 17.8496 32.5 19.9671 32.5 22.175C32.5021 23.976 31.9137 25.728 30.8248 27.1626C30.8246 27.1628 30.8116 27.1799 30.7915 27.2065C30.729 27.2891 30.5975 27.4626 30.5667 27.5011L24.175 35.0399L17.7916 27.5113C17.7651 27.4783 17.6901 27.3797 17.6265 27.2962ZM21.6055 26.0205C22.366 26.5287 23.2602 26.8 24.175 26.8C25.4012 26.7985 26.5767 26.3108 27.4437 25.4437C28.3108 24.5767 28.7985 23.4012 28.8 22.175C28.8 21.2603 28.5287 20.3661 28.0205 19.6055C27.5123 18.8449 26.79 18.2521 25.9449 17.9021C25.0998 17.552 24.1699 17.4604 23.2727 17.6389C22.3755 17.8173 21.5514 18.2578 20.9046 18.9046C20.2578 19.5514 19.8173 20.3755 19.6389 21.2727C19.4604 22.1699 19.552 23.0998 19.902 23.9449C20.2521 24.79 20.8449 25.5123 21.6055 26.0205ZM22.6333 19.8677C23.0896 19.5627 23.6261 19.4 24.175 19.4C24.9107 19.4007 25.6161 19.6933 26.1364 20.2136C26.6566 20.7338 26.9492 21.4392 26.95 22.175C26.95 22.7238 26.7872 23.2604 26.4823 23.7167C26.1774 24.173 25.744 24.5287 25.2369 24.7388C24.7299 24.9488 24.1719 25.0037 23.6336 24.8967C23.0953 24.7896 22.6009 24.5253 22.2128 24.1372C21.8247 23.7491 21.5604 23.2547 21.4533 22.7164C21.3462 22.1781 21.4012 21.6201 21.6112 21.113C21.8213 20.606 22.1769 20.1726 22.6333 19.8677Z" fill="#010107"/>
</svg>

<svg xmlns="http://www.w3.org/2000/svg" width="48" height="48" fill="none" viewBox="0 0 48 48"><circle cx="24" cy="24" r="24" fill="#F7C24D"/><path fill="#010107" fill-rule="evenodd" d="M16.372 28.697l7.803 9.203 7.806-9.206c.042-.05.32-.414.32-.414v-.003a10.067 10.067 0 0 0 2.049-6.102 10.175 10.175 0 1 0-20.35 0 10.073 10.073 0 0 0 2.05 6.105c.106.14.213.279.322.417zm1.255-1.4l-.1-.132a8.238 8.238 0 0 1-1.677-4.99 8.325 8.325 0 0 1 16.65 0 8.234 8.234 0 0 1-1.709 5.031l-.224.295-6.392 7.539-6.383-7.529a12.678 12.678 0 0 1-.166-.215zm3.979-1.277a4.625 4.625 0 1 0 5.138-7.69 4.625 4.625 0 0 0-5.139 7.69zm1.027-6.152a2.774 2.774 0 1 1 3.083 4.613 2.774 2.774 0 0 1-3.083-4.613z" clip-rule="evenodd"/></svg>
